X:176
T:Callino Casturame
T:In Summer Time
Z:Jack Campin, http://www.campin.me.uk/
F:Jack Campin's Nine-Note Tunebook
% last edit 03-02-2013
S:Simpson, The British Broadside Ballad and Its Music
N:the oldest known Irish tune, printed in England in the 16th century
M:3/4
L:1/8
Q:1/4=100
K:F
F3 G A2|A3 B A2| B4   B2|A3 G F2|
G4   G2|G3 A G2|^F3 G F2|G4   G2|
A3 B c2|A3 G F2| E3 F G2|E3 D C2|
F4   F2|F3 G A2| G3 F E2|F6    |]

